src/icons/hds/ui/error.svg

<svg xmlns="http://www.w3.org/2000/svg" width="24" height="24" viewBox="0 0 24 24">
  <g fill="none" fill-rule="evenodd">
    <rect width="24" height="24"/>
    <path fill="currentColor" d="M11.1284245,2.50973876 C11.4970748,1.85436035 12.4201361,1.83095398 12.8283872,2.43951965 L12.8715755,2.50973876 L22.4340755,19.5097388 C22.7965415,20.1541227 22.3584889,20.945264 21.6380177,20.9972908 L21.5625,21 L2.4375,21 C1.69816774,21 1.22338851,20.2303381 1.53126234,19.5768864 L1.56592446,19.5097388 L11.1284245,2.50973876 Z M12,5.04 L4.147,19 L19.8525,19 L12,5.04 Z M13,16 L13,18 L11,18 L11,16 L13,16 Z M13,9.5 L13,14.5 L11,14.5 L11,9.5 L13,9.5 Z"/>
  </g>
</svg>

<svg viewBox="0 0 24 24" role="img" xmlns="http://www.w3.org/2000/svg"><g fill="none" fill-rule="evenodd"><path d="M0 0h24v24H0z"/><path d="M11.128 2.51a1 1 0 011.7-.07l.044.07 9.562 17a1 1 0 01-.796 1.487l-.076.003H2.438a1 1 0 01-.906-1.423l.035-.067 9.562-17zM12 5.04L4.147 19h15.705L12 5.04zM13 16v2h-2v-2h2zm0-6.5v5h-2v-5h2z" fill="currentColor"/></g></svg>
